X: 42733
T: White Blackbird, The
R: jig
M: 6/8
K: Adorian
|:E2A ABc|~A3 GED|EAE AB/c/d|~g2B ~A2G|
EA^G ABc|~A3 GAB|AB/c/d e2g|1 edB ~A2G:|2 edB AB/c/d||
|:e2a aba|age de/f/g|~a3 g2g|edB AB/c/d|
e2a ~g3|e/f/ge dB/c/d|AB/c/d e2g|1 edB AB/c/d:|2 edB ~A2G||

